public/assets/images/icons/red/move_up/perle.svg

<svg width="16" height="16" xmlns="http://www.w3.org/2000/svg" viewBox="0 0 16 16" shape-rendering="geometricPrecision" fill="#cb1800"><defs><mask id="a"><rect fill="#fff" width="100%" height="100%"/><path fill="#000" d="M12.892-.396l-4.507 4.51 2.471 2.471 2.038-2.036 2.037 2.035 2.473-2.47z"/></mask></defs><path d="M12.894 3.136l2.037 2.035 1.058-1.057-3.097-3.096-3.093 3.096 1.057 1.057z"/><path mask="url(#a)" d="M8.039 1.977a6 6 0 1 0 0 12 6 6 0 0 0 0-12zm.374 6.606l-1.751-.329-.567 2.068-.708-1.677-1.685 1.377.748-2.044-1.816-.119 1.767-1.215-.884-1.543 1.751.329.568-2.07.706 1.68 1.687-1.378-.75 2.043 1.817.12-1.767 1.212.884 1.546z"/></svg>

<?xml version="1.0"?><!DOCTYPE svg PUBLIC "-//W3C//DTD SVG 1.1//EN" "http://www.w3.org/Graphics/SVG/1.1/DTD/svg11.dtd"><svg width="16px" height="16px" xmlns="http://www.w3.org/2000/svg" viewBox="0 0 16 16" shape-rendering="geometricPrecision" fill="#cb1800"><defs><mask id="move_up-path"><rect fill="#fff" width="100%" height="100%"/><polygon points="12.892,-0.396 8.385,4.114 10.856,6.585 12.894,4.549 14.931,6.584 17.404,4.114 " fill="#000"/></mask></defs><polygon points="12.894,3.136 14.931,5.171 15.989,4.114 12.892,1.018 9.799,4.114 10.856,5.171 " fill="#cb1800"/><path mask="url(#move_up-path)" d="M8.039,1.977c-3.314,0-6,2.687-6,5.999c0,3.314,2.687,6.001,6,6.001c3.314,0,6-2.687,6-6.001 C14.04,4.663,11.353,1.977,8.039,1.977z M8.413,8.583L6.662,8.254l-0.567,2.068L5.387,8.645l-1.685,1.377L4.45,7.978L2.634,7.859 l1.767-1.215L3.517,5.101L5.268,5.43L5.836,3.36l0.706,1.68l1.687-1.378l-0.75,2.043l1.817,0.12L7.529,7.037L8.413,8.583z"/></svg>
